X:398
T:Reel 398
M:4/4
K:Gmaj
L:1/8
gf|dG (3GGG d2ce|dG (3GGG dece|dG (3GGG d2ed||cAAG =fdcA:||2cABd cAfA|dg (3gfg bg (3gfg |dg (3gfg fgaf|dg (3gfg bgfg|fdcA BGBc|dg (3gfg bg (3gfg |dg (3gfg agfd|cAcA =fdcA|Bded cAAG|
